X: 4015
T: Blackwater, The
R: polka
M: 2/4
K: Amajor
|:F|E>F AB|ce ce/c/|BA/B/ cA|BA F/G/A/F/|
E>F AB|ce ce/c/|BA/B/ c/e/c/B/|A2 A:|
|:c/e/|a2 f/g/a/f/|ec ec/B/|A2 B>c|
[1 BA FE|a2 f/g/a/f/|ec ec/B/|A>A B>c|BA A:|
[2 BA F/G/A/F/|E>F AB|ce ce/c/|BA/B/ c/e/c/B/|A2 A||

